Numix/22x22/status/indicator-usb.svg

<?xml version="1.0" encoding="UTF-8" standalone="no"?>
<!-- Created with Inkscape (http://www.inkscape.org/) -->

<svg
   xmlns:dc="http://purl.org/dc/elements/1.1/"
   xmlns:cc="http://creativecommons.org/ns#"
   xmlns:rdf="http://www.w3.org/1999/02/22-rdf-syntax-ns#"
   xmlns:svg="http://www.w3.org/2000/svg"
   xmlns="http://www.w3.org/2000/svg"
   xmlns:sodipodi="http://sodipodi.sourceforge.net/DTD/sodipodi-0.dtd"
   xmlns:inkscape="http://www.inkscape.org/namespaces/inkscape"
   width="22"
   height="22"
   viewBox="0 0 21.999999 21.999999"
   id="svg2"
   version="1.1"
   inkscape:version="0.91 r"
   sodipodi:docname="indicator-usb.svg">
  <defs
     id="defs4">
    <clipPath
       id="clipPath-273353313">
      <g
         transform="translate(0,-1004.3622)"
         id="g17">
        <path
           style="fill:#1890d0"
           inkscape:connector-curvature="0"
           d="m -24,13 c 0,1.105 -0.672,2 -1.5,2 -0.828,0 -1.5,-0.895 -1.5,-2 0,-1.105 0.672,-2 1.5,-2 0.828,0 1.5,0.895 1.5,2 z"
           transform="matrix(15.333333,0,0,11.5,414.99999,878.8622)"
           id="path19" />
      </g>
    </clipPath>
  </defs>
  <sodipodi:namedview
     id="base"
     pagecolor="#ffffff"
     bordercolor="#666666"
     borderopacity="1.0"
     inkscape:pageopacity="0.0"
     inkscape:pageshadow="2"
     inkscape:zoom="63.356768"
     inkscape:cx="14.371207"
     inkscape:cy="15.316098"
     inkscape:document-units="px"
     inkscape:current-layer="layer1"
     showgrid="true"
     units="px"
     inkscape:window-width="1366"
     inkscape:window-height="747"
     inkscape:window-x="0"
     inkscape:window-y="21"
     inkscape:window-maximized="1">
    <inkscape:grid
       type="xygrid"
       id="grid4153" />
  </sodipodi:namedview>
  <metadata
     id="metadata7">
    <rdf:RDF>
      <cc:Work
         rdf:about="">
        <dc:format>image/svg+xml</dc:format>
        <dc:type
           rdf:resource="http://purl.org/dc/dcmitype/StillImage" />
        <dc:title />
      </cc:Work>
    </rdf:RDF>
  </metadata>
  <g
     inkscape:label="Ebene 1"
     inkscape:groupmode="layer"
     id="layer1"
     transform="translate(0,-1030.3622)">
    <g
       id="g4153">
      <g
         id="g4147">
        <g
           style="fill:#ececec;fill-opacity:1"
           id="g49"
           clip-path="url(#clipPath-273353313)"
           transform="matrix(-0.99641748,0,0,-0.99691891,40.865315,1062.0948)">
          <!-- color: #923165 -->
          <g
             style="fill:#ececec;fill-opacity:1"
             id="g51">
            <path
               style="fill:#ececec;fill-opacity:1;fill-rule:nonzero;stroke:none"
               d="m 11,1.25 -3.0000003,3.7499998 2.0000003,0 0,9.2402342 -3.1894531,-2.064453 0,-0.677734 C 7.5432222,11.243434 8.0345632,10.553049 8.0351562,9.7773438 8.0346938,8.7710746 7.2190873,7.955468 6.2128906,7.9550781 5.2066939,7.955468 4.3910874,8.7710746 4.390625,9.7773438 4.391218,10.553049 4.8825591,11.243434 5.6152344,11.498047 l 0,0.980469 c -0.00399,0.182921 0.059525,0.370328 0.2578125,0.486328 l 4.1289061,2.632812 0,0.957032 C 9.2721495,16.928889 8.8129691,17.679864 8.8125,18.5 8.8125199,19.708102 9.79188,20.687462 11,20.6875 12.20812,20.687462 13.18748,19.708102 13.1875,18.5 13.186676,17.680995 12.728422,16.931057 12,16.556641 l 0,-2.966797 4.111328,-2.582032 c 0.222201,-0.113024 0.414425,-0.334799 0.416016,-0.505859 l 0,-1.5019532 1.091797,0 0,-3 -3.431641,0 0,3 1.09375,0 0,1.1816412 -3.28125,1.99414 0,-7.1757812 2,0 z"
               transform="matrix(-1.0035953,0,0,-1.0030905,41.012242,31.830673)"
               id="path53"
               inkscape:connector-curvature="0"
               sodipodi:nodetypes="cccccccccccccccccccccccccccccccc" />
          </g>
        </g>
      </g>
    </g>
  </g>
</svg>

<?xml version="1.0" encoding="UTF-8" standalone="no"?>
<!-- Created with Inkscape (http://www.inkscape.org/) -->

<svg
   xmlns:dc="http://purl.org/dc/elements/1.1/"
   xmlns:cc="http://creativecommons.org/ns#"
   xmlns:rdf="http://www.w3.org/1999/02/22-rdf-syntax-ns#"
   xmlns:svg="http://www.w3.org/2000/svg"
   xmlns="http://www.w3.org/2000/svg"
   xmlns:sodipodi="http://sodipodi.sourceforge.net/DTD/sodipodi-0.dtd"
   xmlns:inkscape="http://www.inkscape.org/namespaces/inkscape"
   width="22"
   height="22"
   viewBox="0 0 21.999999 21.999999"
   id="svg2"
   version="1.1"
   inkscape:version="0.91 r"
   sodipodi:docname="indicator-usb.svg">
  <defs
     id="defs4">
    <clipPath
       id="clipPath-273353313">
      <g
         transform="translate(0,-1004.3622)"
         id="g17">
        <path
           style="fill:#1890d0"
           inkscape:connector-curvature="0"
           d="m -24,13 c 0,1.105 -0.672,2 -1.5,2 -0.828,0 -1.5,-0.895 -1.5,-2 0,-1.105 0.672,-2 1.5,-2 0.828,0 1.5,0.895 1.5,2 z"
           transform="matrix(15.333333,0,0,11.5,414.99999,878.8622)"
           id="path19" />
      </g>
    </clipPath>
  </defs>
  <sodipodi:namedview
     id="base"
     pagecolor="#ffffff"
     bordercolor="#666666"
     borderopacity="1.0"
     inkscape:pageopacity="0.0"
     inkscape:pageshadow="2"
     inkscape:zoom="15.839192"
     inkscape:cx="-4.5753074"
     inkscape:cy="12.563902"
     inkscape:document-units="px"
     inkscape:current-layer="layer1"
     showgrid="false"
     units="px"
     inkscape:window-width="1366"
     inkscape:window-height="747"
     inkscape:window-x="0"
     inkscape:window-y="21"
     inkscape:window-maximized="1">
    <inkscape:grid
       type="xygrid"
       id="grid4153" />
  </sodipodi:namedview>
  <metadata
     id="metadata7">
    <rdf:RDF>
      <cc:Work
         rdf:about="">
        <dc:format>image/svg+xml</dc:format>
        <dc:type
           rdf:resource="http://purl.org/dc/dcmitype/StillImage" />
        <dc:title />
      </cc:Work>
    </rdf:RDF>
  </metadata>
  <g
     inkscape:label="Ebene 1"
     inkscape:groupmode="layer"
     id="layer1"
     transform="translate(0,-1030.3622)">
    <g
       id="g4153">
      <g
         id="g4147">
        <g
           style="fill:#ececec;fill-opacity:1"
           id="g49"
           clip-path="url(#clipPath-273353313)"
           transform="matrix(-0.99641748,0,0,-0.99691891,40.865315,1062.0948)">
          <!-- color: #923165 -->
          <g
             style="fill:#ececec;fill-opacity:1"
             id="g51">
            <path
               style="fill:#ececec;fill-opacity:1;fill-rule:nonzero;stroke:none"
               d="M 11 1.25 L 8.015625 4.96875 L 10 4.96875 L 10 14.240234 L 6.8105469 12.175781 L 6.8105469 11.498047 A 1.8229721 1.8231036 0 0 0 8.0351562 9.7773438 A 1.8229721 1.8231036 0 0 0 6.2128906 7.9550781 A 1.8229721 1.8231036 0 0 0 4.390625 9.7773438 A 1.8229721 1.8231036 0 0 0 5.6152344 11.498047 L 5.6152344 12.478516 C 5.6112487 12.661437 5.6747598 12.848844 5.8730469 12.964844 L 10.001953 15.597656 L 10.001953 16.554688 A 2.1875693 2.187536 0 0 0 8.8125 18.5 A 2.1875693 2.187536 0 0 0 11 20.6875 A 2.1875693 2.187536 0 0 0 13.1875 18.5 A 2.1875693 2.187536 0 0 0 12 16.556641 L 12 13.589844 L 16.111328 11.007812 C 16.333529 10.894788 16.525753 10.673013 16.527344 10.501953 L 16.527344 9.1308594 L 17.619141 9.1308594 L 17.619141 6.0957031 L 14.1875 6.0957031 L 14.1875 9.1308594 L 15.28125 9.1308594 L 15.28125 10.181641 L 12 12.175781 L 12 4.96875 L 13.986328 4.96875 L 11 1.25 z "
               transform="matrix(-1.0035953,0,0,-1.0030905,41.012242,31.830673)"
               id="path53" />
          </g>
        </g>
      </g>
    </g>
  </g>
</svg>
